tools/download-figma-icons/icons/outlined-medium/heart.svg

<svg width="24" height="24" viewBox="0 0 24 24" fill="none" xmlns="http://www.w3.org/2000/svg">
<path fill-rule="evenodd" clip-rule="evenodd" d="M7.10643 2.89388C5.79008 2.89388 4.54919 3.42985 3.61016 4.40318C1.66264 6.42531 1.64292 9.68918 3.56643 11.6787L12.0074 20.4301L20.4338 11.6882C22.3573 9.69261 22.3375 6.42445 20.39 4.40318C19.4519 3.42985 18.211 2.89388 16.8955 2.89388C15.6023 2.89388 14.3897 3.41356 13.4798 4.35773L12.7732 5.09095C12.5717 5.30105 12.2921 5.41939 12.0014 5.41939C11.7107 5.41939 11.432 5.30191 11.2296 5.0918L10.5221 4.35859C9.61136 3.41356 8.39877 2.89388 7.10729 2.89388H7.10643ZM12.0074 23.0465C11.7175 23.0465 11.438 22.9282 11.2365 22.719L2.02455 13.1683C-0.691342 10.359 -0.672475 5.759 2.06743 2.91534C3.41379 1.51837 5.20352 0.75 7.10644 0.75H7.1073C8.9562 0.75 10.6902 1.47893 12.0014 2.80385C13.3109 1.47893 15.0449 0.75 16.8955 0.75C18.7984 0.75 20.5873 1.51837 21.9345 2.91534C24.6718 5.75729 24.6907 10.3598 21.9774 13.1752L12.7801 22.7181C12.5768 22.9282 12.299 23.0465 12.0074 23.0465Z" fill="black"/>
</svg>

<svg xmlns="http://www.w3.org/2000/svg" width="24" height="24" fill="none" viewBox="0 0 24 24"><path fill="currentColor" fill-rule="evenodd" d="M7.106 2.894c-1.316 0-2.557.536-3.496 1.51-1.947 2.021-1.967 5.285-.044 7.275l8.441 8.751 8.427-8.742c1.923-1.995 1.903-5.264-.044-7.285-.938-.973-2.179-1.51-3.495-1.51a4.7 4.7 0 0 0-3.415 1.465l-.707.733a1.07 1.07 0 0 1-1.543 0l-.708-.732a4.7 4.7 0 0 0-3.415-1.465m4.901 20.153a1.07 1.07 0 0 1-.77-.328l-9.212-9.55c-2.716-2.81-2.697-7.41.042-10.254C3.414 1.518 5.204.75 7.107.75c1.85 0 3.583.729 4.894 2.054A6.83 6.83 0 0 1 16.895.75c1.903 0 3.692.768 5.04 2.165 2.737 2.842 2.756 7.445.042 10.26l-9.197 9.543c-.203.21-.481.329-.773.329" clip-rule="evenodd"/></svg>
